X:3620
L:1/8
Q:1/8=150
M:2/2
K:D
 AF | DAFA DAFA | defe dcBA | eAfA gAfA | edcB AGFE | DAFA DAFA | defe dcBA | dAFA fgec | 
 d2 d2 d2 :| cd | eA A2 fA A2 | eA A2 fA A2 | eAfA gAfA | e2 dB A2 GE | DAFA DAFA | defe dcBA | 
 dAFA fgec | d2 d2 d2 :|

